X:511
T:
R:vals
S:Efter »Florsen» i Burs.
O:Gotland, Burs
M:3/4
L:1/8
K:G
Bd|Lg2 Bced|B4 fg|La2 (fd)(ef)|(gf)(ga)(ba)|
Lg2 Bced|B4 fg|La2 (fd)(ef)|g4::g2|
(ec)(eg)(fg)|(dB)(ce) d2|(DF)(Ac)(BA)|(GA)(Bc) d2|
(ec)(eg)(fg)|(dB)(ce) d2|(DF)(Ac)(BA)|G4::(GA)|
B4 (BA)|B4 (BA)|B4 g2|g2 f2 e2|a4 a2|g2 f2 e2|d4 d2|
(cd)(ed)(cd)|B4 (gf)|g2 (GA) B2|(AB)(cD)(FA)|G4:|

